img/form/send.svg

<svg width="20" height="20" viewBox="0 0 20 20" fill="none" xmlns="http://www.w3.org/2000/svg">
<path fill-rule="evenodd" clip-rule="evenodd" d="M19.7048 2.59154C20.0164 1.18588 18.7092 -0.0825198 17.2939 0.327077L1.63738 4.88281L1.48628 4.93304C0.0166966 5.48611 -0.208786 7.53286 1.16768 8.38023L7.64322 12.3661L11.539 18.8202L11.6265 18.9534C12.5398 20.2329 14.562 19.923 15.0231 18.372L19.6682 2.73251L19.7048 2.59154ZM17.7849 1.75323C18.0737 1.72222 18.3204 2.00312 18.2305 2.30473L13.5852 17.9448L13.5547 18.0214C13.4096 18.3069 12.9988 18.336 12.8232 18.0451L9.13522 11.9361L14.3877 6.64975L14.4601 6.56539C14.6769 6.27106 14.6513 5.85447 14.3842 5.5891L14.2998 5.51676C14.0055 5.29988 13.5889 5.32548 13.3235 5.59263L8.07822 10.8721L1.95398 7.10284L1.88786 7.05318C1.65003 6.83652 1.73008 6.41781 2.05598 6.32322L17.7119 1.76765L17.7849 1.75323Z" fill="url(#paint0_linear_6591_65)"/>
<defs>
<linearGradient id="paint0_linear_6591_65" x1="10.0006" y1="0.249023" x2="10.0006" y2="19.7503" gradientUnits="userSpaceOnUse">
<stop stop-color="#EA00AD"/>
<stop offset="1" stop-color="#8A40FF"/>
</linearGradient>
</defs>
</svg>

<svg width="20" height="20" fill="none" xmlns="http://www.w3.org/2000/svg"><path fill-rule="evenodd" clip-rule="evenodd" d="M19.705 2.592c.311-1.406-.996-2.675-2.411-2.265L1.637 4.883l-.15.05c-1.47.553-1.696 2.6-.32 3.447l6.476 3.986 3.896 6.454.088.133c.913 1.28 2.935.97 3.396-.581l4.645-15.64.037-.14Zm-1.92-.839a.427.427 0 0 1 .445.552l-4.645 15.64-.03.076a.418.418 0 0 1-.732.024l-3.688-6.109 5.253-5.286.072-.085a.75.75 0 0 0-.076-.976l-.084-.072a.75.75 0 0 0-.977.076l-5.245 5.28-6.124-3.77-.066-.05a.432.432 0 0 1 .168-.73l15.656-4.555.073-.015Z" fill="url(#a)"/><defs><linearGradient id="a" x1="10.001" y1=".249" x2="10.001" y2="19.75" gradientUnits="userSpaceOnUse"><stop stop-color="#EA00AD"/><stop offset="1" stop-color="#8A40FF"/></linearGradient></defs></svg>
